static/img/kroki/48c2296ad3e99be02dd2e24df2ef8db8.svg

<?xml version="1.0" encoding="us-ascii" standalone="no"?><svg xmlns="http://www.w3.org/2000/svg" xmlns:xlink="http://www.w3.org/1999/xlink" contentStyleType="text/css" height="374px" preserveAspectRatio="none" style="width:414px;height:374px;" version="1.1" viewBox="0 0 414 374" width="414px" zoomAndPan="magnify"><defs/><g><!--class azure_network_security_group--><g id="elem_azure_network_security_group"><rect codeLine="23" fill="#3D176E" height="39.7891" id="azure_network_security_group" rx="2.5" ry="2.5" style="stroke:#000D19;stroke-width:0.5;" width="299" x="65.5" y="328.58"/><ellipse cx="80.5" cy="348.4745" fill="#ADD1B2" rx="11" ry="11" style="stroke:#181818;stroke-width:1.0;"/><path d="M83.4688,354.1152 Q82.8906,354.412 82.25,354.5527 Q81.6094,354.7089 80.9063,354.7089 Q78.4063,354.7089 77.0781,353.0683 Q75.7656,351.412 75.7656,348.287 Q75.7656,345.162 77.0781,343.5058 Q78.4063,341.8495 80.9063,341.8495 Q81.6094,341.8495 82.25,342.0058 Q82.9063,342.162 83.4688,342.4589 L83.4688,345.1777 Q82.8438,344.5995 82.25,344.3339 Q81.6563,344.0527 81.0313,344.0527 Q79.6875,344.0527 79,345.1308 Q78.3125,346.1933 78.3125,348.287 Q78.3125,350.3808 79,351.4589 Q79.6875,352.5214 81.0313,352.5214 Q81.6563,352.5214 82.25,352.2558 Q82.8438,351.9745 83.4688,351.3964 L83.4688,354.1152 Z " fill="#000000"/><text fill="#D9B8FF" font-family="Helvetica" font-size="17" lengthAdjust="spacing" textLength="257" x="99.5" y="354.3598">azure_network_security_group</text></g><!--class microsoft_resource--><g id="elem_microsoft_resource"><rect codeLine="26" fill="#3D176E" height="39.7891" id="microsoft_resource" rx="2.5" ry="2.5" style="stroke:#000D19;stroke-width:0.5;" width="200" x="7" y="167.79"/><ellipse cx="22" cy="187.6845" fill="#ADD1B2" rx="11" ry="11" style="stroke:#181818;stroke-width:1.0;"/><path d="M24.9688,193.3252 Q24.3906,193.622 23.75,193.7627 Q23.1094,193.9189 22.4063,193.9189 Q19.9063,193.9189 18.5781,192.2783 Q17.2656,190.622 17.2656,187.497 Q17.2656,184.372 18.5781,182.7158 Q19.9063,181.0595 22.4063,181.0595 Q23.1094,181.0595 23.75,181.2158 Q24.4063,181.372 24.9688,181.6689 L24.9688,184.3877 Q24.3438,183.8095 23.75,183.5439 Q23.1563,183.2627 22.5313,183.2627 Q21.1875,183.2627 20.5,184.3408 Q19.8125,185.4033 19.8125,187.497 Q19.8125,189.5908 20.5,190.6689 Q21.1875,191.7314 22.5313,191.7314 Q23.1563,191.7314 23.75,191.4658 Q24.3438,191.1845 24.9688,190.6064 L24.9688,193.3252 Z " fill="#000000"/><text fill="#D9B8FF" font-family="Helvetica" font-size="17" lengthAdjust="spacing" textLength="158" x="41" y="193.5698">microsoft_resource</text></g><!--class resource--><g id="elem_resource"><rect codeLine="29" fill="#3D176E" height="39.7891" id="resource" rx="2.5" ry="2.5" style="stroke:#000D19;stroke-width:0.5;" width="113" x="158.5" y="7"/><ellipse cx="173.5" cy="26.8945" fill="#ADD1B2" rx="11" ry="11" style="stroke:#181818;stroke-width:1.0;"/><path d="M176.4688,32.5352 Q175.8906,32.832 175.25,32.9727 Q174.6094,33.1289 173.9063,33.1289 Q171.4063,33.1289 170.0781,31.4883 Q168.7656,29.832 168.7656,26.707 Q168.7656,23.582 170.0781,21.9258 Q171.4063,20.2695 173.9063,20.2695 Q174.6094,20.2695 175.25,20.4258 Q175.9063,20.582 176.4688,20.8789 L176.4688,23.5977 Q175.8438,23.0195 175.25,22.7539 Q174.6563,22.4727 174.0313,22.4727 Q172.6875,22.4727 172,23.5508 Q171.3125,24.6133 171.3125,26.707 Q171.3125,28.8008 172,29.8789 Q172.6875,30.9414 174.0313,30.9414 Q174.6563,30.9414 175.25,30.6758 Q175.8438,30.3945 176.4688,29.8164 L176.4688,32.5352 Z " fill="#000000"/><text fill="#D9B8FF" font-family="Helvetica" font-size="17" lengthAdjust="spacing" textLength="71" x="192.5" y="32.7798">resource</text></g><!--class security_group--><g id="elem_security_group"><rect codeLine="32" fill="#3D176E" height="39.7891" id="security_group" rx="2.5" ry="2.5" style="stroke:#000D19;stroke-width:0.5;" width="165" x="242.5" y="167.79"/><ellipse cx="257.5" cy="187.6845" fill="#ADD1B2" rx="11" ry="11" style="stroke:#181818;stroke-width:1.0;"/><path d="M260.4688,193.3252 Q259.8906,193.622 259.25,193.7627 Q258.6094,193.9189 257.9063,193.9189 Q255.4063,193.9189 254.0781,192.2783 Q252.7656,190.622 252.7656,187.497 Q252.7656,184.372 254.0781,182.7158 Q255.4063,181.0595 257.9063,181.0595 Q258.6094,181.0595 259.25,181.2158 Q259.9063,181.372 260.4688,181.6689 L260.4688,184.3877 Q259.8438,183.8095 259.25,183.5439 Q258.6563,183.2627 258.0313,183.2627 Q256.6875,183.2627 256,184.3408 Q255.3125,185.4033 255.3125,187.497 Q255.3125,189.5908 256,190.6689 Q256.6875,191.7314 258.0313,191.7314 Q258.6563,191.7314 259.25,191.4658 Q259.8438,191.1845 260.4688,190.6064 L260.4688,193.3252 Z " fill="#000000"/><text fill="#D9B8FF" font-family="Helvetica" font-size="17" lengthAdjust="spacing" textLength="123" x="276.5" y="193.5698">security_group</text></g><!--reverse link microsoft_resource to azure_network_security_group--><g id="link_microsoft_resource_azure_network_security_group"><path codeLine="35" d="M130.1537,222.7232 C150.9137,253.2432 181.14,297.69 201.93,328.25 " fill="none" id="microsoft_resource-backto-azure_network_security_group" style="stroke:#FFAF37;stroke-width:2.0;"/><polygon fill="none" points="120.03,207.84,125.1926,226.0978,135.1148,219.3487,120.03,207.84" style="stroke:#FFAF37;stroke-width:2.0;"/></g><!--reverse link security_group to azure_network_security_group--><g id="link_security_group_azure_network_security_group"><path codeLine="36" d="M301.4807,222.637 C280.3407,253.157 249.49,297.69 228.32,328.25 " fill="none" id="security_group-backto-azure_network_security_group" style="stroke:#FFAF37;stroke-width:2.0;"/><polygon fill="none" points="311.73,207.84,296.5484,219.2206,306.413,226.0535,311.73,207.84" style="stroke:#FFAF37;stroke-width:2.0;"/></g><!--reverse link resource to microsoft_resource--><g id="link_resource_microsoft_resource"><path codeLine="37" d="M191.8463,61.9332 C171.0863,92.4532 140.86,136.9 120.07,167.46 " fill="none" id="resource-backto-microsoft_resource" style="stroke:#FFAF37;stroke-width:2.0;"/><polygon fill="none" points="201.97,47.05,186.8852,58.5587,196.8074,65.3078,201.97,47.05" style="stroke:#FFAF37;stroke-width:2.0;"/></g><!--reverse link resource to security_group--><g id="link_resource_security_group"><path codeLine="38" d="M238.5193,61.847 C259.6593,92.367 290.51,136.9 311.68,167.46 " fill="none" id="resource-backto-security_group" style="stroke:#FFAF37;stroke-width:2.0;"/><polygon fill="none" points="228.27,47.05,233.587,65.2635,243.4516,58.4306,228.27,47.05" style="stroke:#FFAF37;stroke-width:2.0;"/></g><!--SRC=[ZP11Jy9048Nl_HMRS2O1YHOIBqXYz4ACU6-MtLdOjDrfPgSseFvthQ1PjmMypllclJUpjHe4b1NlH0db6iWdFhUkaYHBCIV2Pe45aXWO8yqaZSLxT7mHMCeIn0CKhy1MoPXusLgLE_1UN0NIdLJvXh1s-c3F99t_ai1nG2qAwVsScUowPWZAwDbwQanCngQ3YHwdDz31a3JG4HcDHdeyYv6BKMVl_YLMTWzY73vjYGoTcfs8R-fiovO8IdOE_T5FTdoIMbkt4TV1xFdGYHpGd_bgApKsBMrauSCOpq20lAjWqRaAPbDjqbxuyHISgFPrGkvhWim1DqXvva7LP7cNjHkLU4kIZoDNMaNeqN16uB4c1Q7QD-lpwd6vVHyEXsTh997JFpOYzsviJ4Jxdm00]--></g></svg>

<svg xmlns="http://www.w3.org/2000/svg" width="414" height="374" viewBox="0 0 414 374"><rect width="299" height="39.789" x="65.5" y="328.58" fill="#3D176E" rx="2.5" ry="2.5" style="stroke:#000d19;stroke-width:.5"/><circle cx="80.5" cy="348.474" r="11" fill="#ADD1B2" style="stroke:#181818;stroke-width:1"/><path d="M83.469 354.115q-.578.297-1.219.438-.64.156-1.344.156-2.5 0-3.828-1.64-1.312-1.657-1.312-4.782t1.312-4.781q1.328-1.656 3.828-1.656.703 0 1.344.156.656.156 1.219.453v2.719q-.625-.579-1.219-.844-.594-.281-1.219-.281-1.344 0-2.031 1.078-.687 1.062-.687 3.156t.687 3.172q.688 1.062 2.031 1.062.625 0 1.219-.265.594-.281 1.219-.86z"/><text x="99.5" y="354.36" fill="#D9B8FF" font-family="Helvetica" font-size="17" textLength="257">azure_network_security_group</text><rect width="200" height="39.789" x="7" y="167.79" fill="#3D176E" rx="2.5" ry="2.5" style="stroke:#000d19;stroke-width:.5"/><circle cx="22" cy="187.685" r="11" fill="#ADD1B2" style="stroke:#181818;stroke-width:1"/><path d="M24.969 193.325q-.578.297-1.219.438-.64.156-1.344.156-2.5 0-3.828-1.64-1.312-1.657-1.312-4.782t1.312-4.781q1.328-1.656 3.828-1.656.703 0 1.344.156.656.156 1.219.453v2.719q-.625-.578-1.219-.844-.594-.281-1.219-.281-1.343 0-2.031 1.078-.687 1.062-.687 3.156t.687 3.172q.688 1.062 2.031 1.062.625 0 1.219-.265.594-.281 1.219-.86z"/><text x="41" y="193.57" fill="#D9B8FF" font-family="Helvetica" font-size="17" textLength="158">microsoft_resource</text><rect width="113" height="39.789" x="158.5" y="7" fill="#3D176E" rx="2.5" ry="2.5" style="stroke:#000d19;stroke-width:.5"/><circle cx="173.5" cy="26.895" r="11" fill="#ADD1B2" style="stroke:#181818;stroke-width:1"/><path d="M176.469 32.535q-.578.297-1.219.438-.64.156-1.344.156-2.5 0-3.828-1.64-1.312-1.657-1.312-4.782t1.312-4.781q1.328-1.656 3.828-1.656.703 0 1.344.156.656.156 1.219.453v2.719q-.625-.578-1.219-.844-.594-.281-1.219-.281-1.344 0-2.031 1.078-.687 1.062-.687 3.156t.687 3.172q.688 1.062 2.031 1.062.625 0 1.219-.265.594-.281 1.219-.86z"/><text x="192.5" y="32.78" fill="#D9B8FF" font-family="Helvetica" font-size="17" textLength="71">resource</text><rect width="165" height="39.789" x="242.5" y="167.79" fill="#3D176E" rx="2.5" ry="2.5" style="stroke:#000d19;stroke-width:.5"/><circle cx="257.5" cy="187.685" r="11" fill="#ADD1B2" style="stroke:#181818;stroke-width:1"/><path d="M260.469 193.325q-.578.297-1.219.438-.64.156-1.344.156-2.5 0-3.828-1.64-1.312-1.657-1.312-4.782t1.312-4.781q1.328-1.656 3.828-1.656.703 0 1.344.156.656.156 1.219.453v2.719q-.625-.578-1.219-.844-.594-.281-1.219-.281-1.344 0-2.031 1.078-.687 1.062-.687 3.156t.687 3.172q.688 1.062 2.031 1.062.625 0 1.219-.265.594-.281 1.219-.86z"/><text x="276.5" y="193.57" fill="#D9B8FF" font-family="Helvetica" font-size="17" textLength="123">security_group</text><g fill="none"><path d="M130.154 222.723c20.76 30.52 50.986 74.967 71.776 105.527" style="stroke:#ffaf37;stroke-width:2"/><path d="m120.03 207.84 5.163 18.258 9.922-6.75z" style="stroke:#ffaf37;stroke-width:2"/></g><path fill="none" d="M301.48 222.637c-21.14 30.52-51.99 75.053-73.16 105.613m83.41-120.41-15.182 11.38 9.865 6.834z" style="stroke:#ffaf37;stroke-width:2"/><g fill="none"><path d="M191.846 61.933c-20.76 30.52-50.986 74.967-71.776 105.527" style="stroke:#ffaf37;stroke-width:2"/><path d="m201.97 47.05-15.085 11.509 9.922 6.749z" style="stroke:#ffaf37;stroke-width:2"/></g><path fill="none" d="M238.52 61.847c21.14 30.52 51.99 75.053 73.16 105.613M228.27 47.05l5.317 18.213 9.865-6.832z" style="stroke:#ffaf37;stroke-width:2"/></svg>
